X: 1747
T: ONE OF THE BOYS
M:C|
L:1/8
B:O'NEILL'S 1747
Z:Transcription by A. LEE WORMAN
K:Bb
F2|B2 (Bc) dFDF|BcdB edcB|Bdfg fdBd|edcB AcAF|
B2 (Bc) BFDF|BcdB edcB|Bdfg fecd|B2 B2 B2:|
|:(Bd)|f2 (fg) fdfb|g2 (ga) gfga|bagf edcB|ABcA F2 (de)|
f2 (fg) fdfb|g2 (ga) gfga|b2 (fd) ecAc|B2 B2 B2:|


